assets/images/brands/tailwindtemplates.svg

<svg fill="none" height="69" viewBox="0 0 200 69" width="200" xmlns="http://www.w3.org/2000/svg" xmlns:xlink="http://www.w3.org/1999/xlink"><clipPath id="a"><path d="m0 0h200v68.7997h-200z"/></clipPath><g clip-path="url(#a)"><g fill="#0ed7b5"><path d="m65.9296 0h-63.24953c-1.50084 0-2.68007 1.17923-2.68007 2.68006v38.37834c0 1.5009 1.17923 2.6801 2.68007 2.6801h63.24953c1.5008 0 2.68-1.1792 2.68-2.6801v-38.37834c0-1.50083-1.1792-2.68006-2.68-2.68006zm-2.68 38.3784h-57.88944v-33.01826h57.88944z"/><path d="m59.8192 51.457h-51.02855c-1.50086 0-2.68005 1.1793-2.68005 2.6804 0 1.5008 1.17919 2.68 2.68005 2.68h51.02855c1.5008 0 2.68-1.1792 2.68-2.68 0-1.5011-1.1792-2.6804-2.68-2.6804z"/><path d="m59.8192 63.2494h-51.02855c-1.50086 0-2.68005 1.1792-2.68005 2.68s1.17919 2.6801 2.68005 2.6801h51.02855c1.5008 0 2.68-1.1793 2.68-2.6801s-1.1792-2.68-2.68-2.68z"/><path clip-rule="evenodd" d="m34.3048 9.64819c-5.4316 0-8.8264 2.62051-10.1842 7.86151 2.0368-2.6205 4.4131-3.6032 7.1289-2.9481 1.5495.3738 2.6571 1.4585 3.883 2.6592 1.997 1.9559 4.3083 4.2196 9.3566 4.2196 5.4316 0 8.8263-2.6205 10.1845-7.8615-2.0371 2.6205-4.4134 3.6032-7.1292 2.9481-1.5496-.3738-2.6571-1.4584-3.8829-2.6592-1.9971-1.9559-4.3084-4.21961-9.3567-4.21961zm-10.1842 11.79221c-5.4317 0-8.8265 2.6206-10.1843 7.8616 2.0368-2.6206 4.4132-3.6032 7.129-2.9481 1.5495.3738 2.657 1.4584 3.8829 2.6592 1.997 1.9558 4.3083 4.2196 9.3566 4.2196 5.4316 0 8.8264-2.6205 10.1843-7.8615-2.0369 2.6205-4.4132 3.6032-7.129 2.948-1.5495-.3737-2.6571-1.4584-3.8829-2.6591-1.9971-1.9559-4.3084-4.2197-9.3566-4.2197z" fill-rule="evenodd"/></g><path d="m90.24 9.51034-.3584 2.68796h-4.608v15.0015h-3.4048v-15.0015h-4.7616v-2.68796zm10.841 14.10556c0 .529.077.9216.23 1.1776.171.2389.436.4266.794.5631l-.691 2.176c-.768-.0682-1.4-.256-1.8945-.5632-.4779-.3072-.8448-.7765-1.1008-1.4079-.4608.6826-1.0411 1.1946-1.7408 1.5359-.6827.3243-1.4507.4864-2.304.4864-1.3483 0-2.415-.384-3.2-1.152-.7851-.768-1.1776-1.7749-1.1776-3.0207 0-1.4678.529-2.5856 1.5872-3.3536 1.0752-.7851 2.6026-1.1776 4.5824-1.1776h1.6896v-.768c0-.8704-.2048-1.4763-.6144-1.8176-.3926-.3584-1.0326-.5376-1.92-.5376-.9899 0-2.1846.2389-3.584.7168l-.768-2.2272c1.6896-.6485 3.328-.9728 4.9152-.9728 3.4645 0 5.1967 1.5531 5.1967 4.6592zm-5.8367 1.5872c1.1093 0 1.9797-.5547 2.6112-1.664v-2.7392h-1.3568c-2.1163 0-3.1744.785-3.1744 2.3552 0 .6485.1621 1.152.4864 1.5104.3242.3584.8021.5376 1.4336.5376zm13.0787-11.5456v13.5423h-3.277v-13.5423zm-1.664-6.86075c.615 0 1.11.19627 1.485.5888.393.37546.589.8448.589 1.40799 0 .5632-.196 1.03253-.589 1.40796-.375.3755-.87.5632-1.485.5632-.597 0-1.092-.1877-1.485-.5632-.375-.37543-.563-.84476-.563-1.40796 0-.56319.188-1.03253.563-1.40799.393-.39253.888-.5888 1.485-.5888zm8.813 20.78705c-1.042 0-1.861-.2986-2.458-.896-.58-.6144-.87-1.4762-.87-2.5855v-15.87196l3.276-.35839v16.12795c0 .6314.256.9472.768.9472.256 0 .512-.0427.768-.128l.692 2.3039c-.683.3072-1.408.4608-2.176.4608zm20.887-13.9263-2.944 13.5423h-4.096l-2.048-10.6239-2.099 10.6239h-4.019l-2.996-13.5423h3.277l1.895 11.136 2.355-11.136h3.353l2.151 11.136 2.022-11.136zm5.539 0v13.5423h-3.277v-13.5423zm-1.664-6.86075c.615 0 1.11.19627 1.485.5888.393.37546.589.8448.589 1.40799 0 .5632-.196 1.03253-.589 1.40796-.375.3755-.87.5632-1.485.5632-.597 0-1.092-.1877-1.485-.5632-.375-.37543-.563-.84476-.563-1.40796 0-.56319.188-1.03253.563-1.40799.393-.39253.888-.5888 1.485-.5888zm12.832 6.47675c1.211 0 2.15.3669 2.816 1.1008.682.7168 1.024 1.7237 1.024 3.0208v9.8047h-3.277v-9.2927c0-.8021-.145-1.3653-.435-1.6896-.273-.3243-.683-.4864-1.229-.4864-.563 0-1.075.1792-1.536.5376-.444.3413-.879.8448-1.306 1.5104v9.4207h-3.276v-13.5423h2.841l.256 1.7664c1.109-1.4336 2.483-2.1504 4.122-2.1504zm19.047-5.04316v18.96946h-2.893l-.23-1.7152c-.427.6486-.973 1.1606-1.638 1.536-.649.3755-1.391.5632-2.228.5632-1.655 0-2.927-.64-3.814-1.92-.887-1.2799-1.331-3.0207-1.331-5.2223 0-1.3824.222-2.6112.665-3.6864.444-1.0923 1.076-1.9456 1.895-2.56.836-.6144 1.8-.9216 2.893-.9216 1.297 0 2.432.4864 3.404 1.4592v-6.86075zm-6.067 16.87036c.58 0 1.092-.1366 1.536-.4096.444-.2902.862-.7339 1.254-1.3312v-6.1952c-.392-.4779-.793-.8363-1.203-1.0752-.392-.2389-.853-.3584-1.382-.3584-.871 0-1.562.3925-2.074 1.1776-.495.768-.742 1.9371-.742 3.5072 0 1.6725.222 2.8757.665 3.6096.444.7168 1.093 1.0752 1.946 1.0752zm-75.806 15.3428-.3584 2.688h-4.608v15.0015h-3.4048v-15.0015h-4.7616v-2.688zm11.817 10.5983c0 .1707-.026.6144-.077 1.3312h-8.4995c.1024 1.3142.4438 2.2528 1.024 2.816.5803.5632 1.3483.8448 2.3041.8448.5973 0 1.1605-.0939 1.6896-.2816.529-.2048 1.0922-.512 1.6898-.9216l1.357 1.8688c-1.502 1.2117-3.1748 1.8176-5.018 1.8176-2.0651 0-3.6609-.6315-4.7873-1.8944-1.1093-1.2629-1.664-2.9866-1.664-5.1712 0-1.3824.239-2.6197.7168-3.7119.4779-1.1094 1.1691-1.9712 2.0736-2.5856.9046-.6315 1.9798-.9472 3.2256-.9472 1.8944 0 3.3622.6058 4.4033 1.8176 1.041 1.1946 1.562 2.8672 1.562 5.0175zm-3.2517-.9472c0-2.3722-.8789-3.5583-2.6368-3.5583-.8021 0-1.4336.2986-1.8944.896-.4437.5802-.7082 1.5189-.7936 2.8159h5.3248zm20.5527-5.8879c1.092 0 1.963.3754 2.611 1.1264.649.7338.973 1.7322.973 2.9952v9.8047h-3.277v-9.2928c0-1.4506-.495-2.1759-1.485-2.1759-.529 0-.99.1706-1.382.512-.376.3242-.768.8362-1.178 1.536v9.4207h-3.276v-9.2928c0-1.4506-.495-2.1759-1.485-2.1759-.546 0-1.016.1706-1.408.512-.376.3242-.768.8362-1.178 1.536v9.4207h-3.277v-13.5423h2.842l.256 1.7664c1.024-1.4336 2.33-2.1504 3.917-2.1504.785 0 1.459.2048 2.022.6144.58.3925.999.9472 1.255 1.664.546-.7339 1.143-1.2971 1.792-1.6896.665-.3926 1.425-.5888 2.278-.5888zm14.403 0c1.706 0 2.969.6229 3.788 1.8688.82 1.2458 1.229 2.9952 1.229 5.2479 0 1.3995-.213 2.6454-.64 3.7376-.409 1.0752-1.024 1.92-1.843 2.5344-.802.6144-1.758.9216-2.867.9216-1.434 0-2.569-.4949-3.405-1.4848v6.3232l-3.277.3584v-19.1231h2.867l.18 1.664c.529-.6827 1.135-1.1947 1.817-1.536.683-.3414 1.4-.512 2.151-.512zm-1.255 11.8015c1.895 0 2.842-1.553 2.842-4.6592 0-1.6554-.214-2.8501-.64-3.5839-.427-.7339-1.067-1.1008-1.92-1.1008-.546 0-1.058.1706-1.536.512-.478.3242-.888.768-1.229 1.3312v6.0927c.631.9387 1.459 1.408 2.483 1.408zm12.69 2.5088c-1.041 0-1.86-.2987-2.457-.896-.58-.6144-.871-1.4763-.871-2.5856v-15.8719l3.277-.3584v16.1279c0 .6315.256.9472.768.9472.256 0 .512-.0427.768-.128l.691 2.304c-.682.3072-1.408.4608-2.176.4608zm14.235-3.968c0 .5291.077.9216.23 1.1776.171.2389.436.4267.794.5632l-.691 2.176c-.768-.0683-1.4-.256-1.895-.5632-.477-.3072-.844-.7765-1.1-1.408-.461.6827-1.041 1.1947-1.741 1.536-.683.3243-1.451.4864-2.304.4864-1.348 0-2.415-.384-3.2-1.152s-1.178-1.7749-1.178-3.0208c0-1.4677.529-2.5856 1.587-3.3536 1.076-.785 2.603-1.1776 4.583-1.1776h1.689v-.7679c0-.8704-.204-1.4763-.614-1.8176-.392-.3584-1.032-.5376-1.92-.5376-.99 0-2.184.2389-3.584.7168l-.768-2.2272c1.69-.6486 3.328-.9728 4.915-.9728 3.465 0 5.197 1.553 5.197 4.6592zm-5.837 1.5872c1.11 0 1.98-.5547 2.611-1.664v-2.7392h-1.356c-2.117 0-3.175.7851-3.175 2.3552 0 .6486.162 1.152.487 1.5104.324.3584.802.5376 1.433.5376zm17.559 1.3568c-.478.3413-1.015.5973-1.613.768-.58.1707-1.177.256-1.792.256-1.331-.0171-2.346-.3925-3.046-1.1264-.683-.7509-1.024-1.8517-1.024-3.3024v-7.1423h-2.125v-2.3552h2.125v-2.9952l3.277-.384v3.3792h3.149l-.333 2.3552h-2.816v7.0655c0 .6656.111 1.1435.333 1.4336.239.2901.605.4352 1.1.4352s1.033-.1621 1.613-.4864zm12.529-6.4512c0 .1707-.026.6144-.077 1.3312h-8.499c.102 1.3142.444 2.2528 1.024 2.816s1.348.8448 2.304.8448c.597 0 1.16-.0939 1.689-.2816.529-.2048 1.093-.512 1.69-.9216l1.357 1.8688c-1.502 1.2117-3.175 1.8176-5.018 1.8176-2.065 0-3.661-.6315-4.787-1.8944-1.109-1.2629-1.664-2.9866-1.664-5.1712 0-1.3824.239-2.6197.717-3.7119.478-1.1094 1.169-1.9712 2.073-2.5856.905-.6315 1.98-.9472 3.226-.9472 1.894 0 3.362.6058 4.403 1.8176 1.041 1.1946 1.562 2.8672 1.562 5.0175zm-3.251-.9472c0-2.3722-.879-3.5583-2.637-3.5583-.802 0-1.434.2986-1.895.896-.443.5802-.708 1.5189-.793 2.8159h5.325zm10.466-5.8879c1.826 0 3.43.5376 4.813 1.6128l-1.28 1.92c-1.161-.7339-2.296-1.1008-3.405-1.1008-.649 0-1.152.128-1.511.384-.358.2389-.537.5632-.537.9728 0 .3072.077.5632.23.768.154.2048.427.401.819.5888.41.1706 1.007.3669 1.792.5887 1.468.3926 2.552.9131 3.252 1.5616.716.6486 1.075 1.5531 1.075 2.7136 0 1.3483-.546 2.4064-1.639 3.1744-1.092.7509-2.449 1.1264-4.07 1.1264-1.109 0-2.125-.1707-3.046-.512-.905-.3413-1.69-.8107-2.356-1.408l1.639-1.8432c1.177.8875 2.406 1.3312 3.686 1.3312.734 0 1.314-.1451 1.741-.4352.444-.2901.666-.6912.666-1.2032 0-.3925-.086-.6997-.256-.9216-.154-.2389-.444-.4437-.871-.6144-.409-.1877-1.058-.4096-1.945-.6656-1.383-.3754-2.398-.896-3.047-1.5616-.648-.6826-.973-1.5274-.973-2.5343 0-.751.214-1.4251.64-2.0224.444-.5974 1.058-1.0667 1.844-1.408.802-.3414 1.715-.512 2.739-.512z" fill="#2d3748"/></g></svg>

<svg width="200" height="69" viewBox="0 0 200 69" fill="none" xmlns="http://www.w3.org/2000/svg">
<g clip-path="url(#clip0)">
<path d="M65.9296 0H2.68007C1.17923 0 0 1.17923 0 2.68006V41.0584C0 42.5593 1.17923 43.7385 2.68007 43.7385H65.9296C67.4304 43.7385 68.6096 42.5593 68.6096 41.0584V2.68006C68.6096 1.17923 67.4304 0 65.9296 0ZM63.2496 38.3784H5.36016V5.36014H63.2496V38.3784Z" fill="#0ED7B5"/>
<path d="M59.8192 51.457H8.79065C7.28979 51.457 6.1106 52.6363 6.1106 54.1374C6.1106 55.6382 7.28979 56.8174 8.79065 56.8174H59.8192C61.32 56.8174 62.4992 55.6382 62.4992 54.1374C62.4992 52.6363 61.32 51.457 59.8192 51.457Z" fill="#0ED7B5"/>
<path d="M59.8192 63.2494H8.79065C7.28979 63.2494 6.1106 64.4286 6.1106 65.9294C6.1106 67.4302 7.28979 68.6095 8.79065 68.6095H59.8192C61.32 68.6095 62.4992 67.4302 62.4992 65.9294C62.4992 64.4286 61.32 63.2494 59.8192 63.2494Z" fill="#0ED7B5"/>
<path fill-rule="evenodd" clip-rule="evenodd" d="M34.3048 9.64819C28.8732 9.64819 25.4784 12.2687 24.1206 17.5097C26.1574 14.8892 28.5337 13.9065 31.2495 14.5616C32.799 14.9354 33.9066 16.0201 35.1325 17.2208C37.1295 19.1767 39.4408 21.4404 44.4891 21.4404C49.9207 21.4404 53.3154 18.8199 54.6736 13.5789C52.6365 16.1994 50.2602 17.1821 47.5444 16.527C45.9948 16.1532 44.8873 15.0686 43.6615 13.8678C41.6644 11.9119 39.3531 9.64819 34.3048 9.64819ZM24.1206 21.4404C18.6889 21.4404 15.2941 24.061 13.9363 29.302C15.9731 26.6814 18.3495 25.6988 21.0653 26.3539C22.6148 26.7277 23.7223 27.8123 24.9482 29.0131C26.9452 30.9689 29.2565 33.2327 34.3048 33.2327C39.7364 33.2327 43.1312 30.6122 44.4891 25.3712C42.4522 27.9917 40.0759 28.9744 37.3601 28.3192C35.8106 27.9455 34.703 26.8608 33.4772 25.6601C31.4801 23.7042 29.1688 21.4404 24.1206 21.4404Z" fill="#0ED7B5"/>
<path d="M90.24 9.51034L89.8816 12.1983H85.2736V27.1998H81.8688V12.1983H77.1072V9.51034H90.24ZM101.081 23.6159C101.081 24.1449 101.158 24.5375 101.311 24.7935C101.482 25.0324 101.747 25.2201 102.105 25.3566L101.414 27.5326C100.646 27.4644 100.014 27.2766 99.5195 26.9694C99.0416 26.6622 98.6747 26.1929 98.4187 25.5615C97.9579 26.2441 97.3776 26.7561 96.6779 27.0974C95.9952 27.4217 95.2272 27.5838 94.3739 27.5838C93.0256 27.5838 91.9589 27.1998 91.1739 26.4318C90.3888 25.6638 89.9963 24.6569 89.9963 23.4111C89.9963 21.9433 90.5253 20.8255 91.5835 20.0575C92.6587 19.2724 94.1861 18.8799 96.1659 18.8799H97.8555V18.1119C97.8555 17.2415 97.6507 16.6356 97.2411 16.2943C96.8485 15.9359 96.2085 15.7567 95.3211 15.7567C94.3312 15.7567 93.1365 15.9956 91.7371 16.4735L90.9691 14.2463C92.6587 13.5978 94.2971 13.2735 95.8843 13.2735C99.3488 13.2735 101.081 14.8266 101.081 17.9327V23.6159ZM95.2443 25.2031C96.3536 25.2031 97.224 24.6484 97.8555 23.5391V20.7999H96.4987C94.3824 20.7999 93.3243 21.5849 93.3243 23.1551C93.3243 23.8036 93.4864 24.3071 93.8107 24.6655C94.1349 25.0239 94.6128 25.2031 95.2443 25.2031ZM108.323 13.6575V27.1998H105.046V13.6575H108.323ZM106.659 6.79675C107.274 6.79675 107.769 6.99302 108.144 7.38555C108.537 7.76101 108.733 8.23035 108.733 8.79354C108.733 9.35674 108.537 9.82607 108.144 10.2015C107.769 10.577 107.274 10.7647 106.659 10.7647C106.062 10.7647 105.567 10.577 105.174 10.2015C104.799 9.82607 104.611 9.35674 104.611 8.79354C104.611 8.23035 104.799 7.76101 105.174 7.38555C105.567 6.99302 106.062 6.79675 106.659 6.79675ZM115.472 27.5838C114.43 27.5838 113.611 27.2852 113.014 26.6878C112.434 26.0734 112.144 25.2116 112.144 24.1023V8.23034L115.42 7.87195V23.9999C115.42 24.6313 115.676 24.9471 116.188 24.9471C116.444 24.9471 116.7 24.9044 116.956 24.8191L117.648 27.123C116.965 27.4302 116.24 27.5838 115.472 27.5838ZM136.359 13.6575L133.415 27.1998H129.319L127.271 16.5759L125.172 27.1998H121.153L118.157 13.6575H121.434L123.329 24.7935L125.684 13.6575H129.037L131.188 24.7935L133.21 13.6575H136.359ZM141.898 13.6575V27.1998H138.621V13.6575H141.898ZM140.234 6.79675C140.849 6.79675 141.344 6.99302 141.719 7.38555C142.112 7.76101 142.308 8.23035 142.308 8.79354C142.308 9.35674 142.112 9.82607 141.719 10.2015C141.344 10.577 140.849 10.7647 140.234 10.7647C139.637 10.7647 139.142 10.577 138.749 10.2015C138.374 9.82607 138.186 9.35674 138.186 8.79354C138.186 8.23035 138.374 7.76101 138.749 7.38555C139.142 6.99302 139.637 6.79675 140.234 6.79675ZM153.066 13.2735C154.277 13.2735 155.216 13.6404 155.882 14.3743C156.564 15.0911 156.906 16.098 156.906 17.3951V27.1998H153.629V17.9071C153.629 17.105 153.484 16.5418 153.194 16.2175C152.921 15.8932 152.511 15.7311 151.965 15.7311C151.402 15.7311 150.89 15.9103 150.429 16.2687C149.985 16.61 149.55 17.1135 149.123 17.7791V27.1998H145.847V13.6575H148.688L148.944 15.4239C150.053 13.9903 151.427 13.2735 153.066 13.2735ZM172.113 8.23034V27.1998H169.22L168.99 25.4846C168.563 26.1332 168.017 26.6452 167.352 27.0206C166.703 27.3961 165.961 27.5838 165.124 27.5838C163.469 27.5838 162.197 26.9438 161.31 25.6638C160.423 24.3839 159.979 22.6431 159.979 20.4415C159.979 19.0591 160.201 17.8303 160.644 16.7551C161.088 15.6628 161.72 14.8095 162.539 14.1951C163.375 13.5807 164.339 13.2735 165.432 13.2735C166.729 13.2735 167.864 13.7599 168.836 14.7327V7.87195L172.113 8.23034ZM166.046 25.1007C166.626 25.1007 167.138 24.9641 167.582 24.6911C168.026 24.4009 168.444 23.9572 168.836 23.3599V17.1647C168.444 16.6868 168.043 16.3284 167.633 16.0895C167.241 15.8506 166.78 15.7311 166.251 15.7311C165.38 15.7311 164.689 16.1236 164.177 16.9087C163.682 17.6767 163.435 18.8458 163.435 20.4159C163.435 22.0884 163.657 23.2916 164.1 24.0255C164.544 24.7423 165.193 25.1007 166.046 25.1007ZM90.24 40.4435L89.8816 43.1315H85.2736V58.133H81.8688V43.1315H77.1072V40.4435H90.24ZM102.057 51.0418C102.057 51.2125 102.031 51.6562 101.98 52.373H93.4805C93.5829 53.6872 93.9243 54.6258 94.5045 55.189C95.0848 55.7522 95.8528 56.0338 96.8086 56.0338C97.4059 56.0338 97.9691 55.9399 98.4982 55.7522C99.0272 55.5474 99.5904 55.2402 100.188 54.8306L101.545 56.6994C100.043 57.9111 98.3702 58.517 96.527 58.517C94.4619 58.517 92.8661 57.8855 91.7397 56.6226C90.6304 55.3597 90.0757 53.636 90.0757 51.4514C90.0757 50.069 90.3147 48.8317 90.7925 47.7395C91.2704 46.6301 91.9616 45.7683 92.8661 45.1539C93.7707 44.5224 94.8459 44.2067 96.0917 44.2067C97.9861 44.2067 99.4539 44.8125 100.495 46.0243C101.536 47.2189 102.057 48.8915 102.057 51.0418ZM98.8053 50.0946C98.8053 47.7224 97.9264 46.5363 96.1685 46.5363C95.3664 46.5363 94.7349 46.8349 94.2741 47.4323C93.8304 48.0125 93.5659 48.9512 93.4805 50.2482H98.8053V50.0946ZM119.358 44.2067C120.45 44.2067 121.321 44.5821 121.969 45.3331C122.618 46.0669 122.942 47.0653 122.942 48.3283V58.133H119.665V48.8402C119.665 47.3896 119.17 46.6643 118.18 46.6643C117.651 46.6643 117.19 46.8349 116.798 47.1763C116.422 47.5005 116.03 48.0125 115.62 48.7123V58.133H112.344V48.8402C112.344 47.3896 111.849 46.6643 110.859 46.6643C110.313 46.6643 109.843 46.8349 109.451 47.1763C109.075 47.5005 108.683 48.0125 108.273 48.7123V58.133H104.996V44.5907H107.838L108.094 46.3571C109.118 44.9235 110.424 44.2067 112.011 44.2067C112.796 44.2067 113.47 44.4115 114.033 44.8211C114.613 45.2136 115.032 45.7683 115.288 46.4851C115.834 45.7512 116.431 45.188 117.08 44.7955C117.745 44.4029 118.505 44.2067 119.358 44.2067ZM133.761 44.2067C135.467 44.2067 136.73 44.8296 137.549 46.0755C138.369 47.3213 138.778 49.0707 138.778 51.3234C138.778 52.7229 138.565 53.9688 138.138 55.061C137.729 56.1362 137.114 56.981 136.295 57.5954C135.493 58.2098 134.537 58.517 133.428 58.517C131.994 58.517 130.859 58.0221 130.023 57.0322V63.3554L126.746 63.7138V44.5907H129.613L129.793 46.2547C130.322 45.572 130.928 45.06 131.61 44.7187C132.293 44.3773 133.01 44.2067 133.761 44.2067ZM132.506 56.0082C134.401 56.0082 135.348 54.4552 135.348 51.349C135.348 49.6936 135.134 48.4989 134.708 47.7651C134.281 47.0312 133.641 46.6643 132.788 46.6643C132.242 46.6643 131.73 46.8349 131.252 47.1763C130.774 47.5005 130.364 47.9443 130.023 48.5075V54.6002C130.654 55.5389 131.482 56.0082 132.506 56.0082ZM145.196 58.517C144.155 58.517 143.336 58.2183 142.739 57.621C142.159 57.0066 141.868 56.1447 141.868 55.0354V39.1635L145.145 38.8051V54.933C145.145 55.5645 145.401 55.8802 145.913 55.8802C146.169 55.8802 146.425 55.8375 146.681 55.7522L147.372 58.0562C146.69 58.3634 145.964 58.517 145.196 58.517ZM159.431 54.549C159.431 55.0781 159.508 55.4706 159.661 55.7266C159.832 55.9655 160.097 56.1533 160.455 56.2898L159.764 58.4658C158.996 58.3975 158.364 58.2098 157.869 57.9026C157.392 57.5954 157.025 57.1261 156.769 56.4946C156.308 57.1773 155.728 57.6893 155.028 58.0306C154.345 58.3549 153.577 58.517 152.724 58.517C151.376 58.517 150.309 58.133 149.524 57.365C148.739 56.597 148.346 55.5901 148.346 54.3442C148.346 52.8765 148.875 51.7586 149.933 50.9906C151.009 50.2056 152.536 49.813 154.516 49.813H156.205V49.0451C156.205 48.1747 156.001 47.5688 155.591 47.2275C155.199 46.8691 154.559 46.6899 153.671 46.6899C152.681 46.6899 151.487 46.9288 150.087 47.4067L149.319 45.1795C151.009 44.5309 152.647 44.2067 154.234 44.2067C157.699 44.2067 159.431 45.7597 159.431 48.8659V54.549ZM153.594 56.1362C154.704 56.1362 155.574 55.5815 156.205 54.4722V51.733H154.849C152.732 51.733 151.674 52.5181 151.674 54.0882C151.674 54.7368 151.836 55.2402 152.161 55.5986C152.485 55.957 152.963 56.1362 153.594 56.1362ZM171.153 57.493C170.675 57.8343 170.138 58.0903 169.54 58.261C168.96 58.4317 168.363 58.517 167.748 58.517C166.417 58.4999 165.402 58.1245 164.702 57.3906C164.019 56.6397 163.678 55.5389 163.678 54.0882V46.9459H161.553V44.5907H163.678V41.5955L166.955 41.2115V44.5907H170.104L169.771 46.9459H166.955V54.0114C166.955 54.677 167.066 55.1549 167.288 55.445C167.527 55.7351 167.893 55.8802 168.388 55.8802C168.883 55.8802 169.421 55.7181 170.001 55.3938L171.153 57.493ZM183.682 51.0418C183.682 51.2125 183.656 51.6562 183.605 52.373H175.106C175.208 53.6872 175.55 54.6258 176.13 55.189C176.71 55.7522 177.478 56.0338 178.434 56.0338C179.031 56.0338 179.594 55.9399 180.123 55.7522C180.652 55.5474 181.216 55.2402 181.813 54.8306L183.17 56.6994C181.668 57.9111 179.995 58.517 178.152 58.517C176.087 58.517 174.491 57.8855 173.365 56.6226C172.256 55.3597 171.701 53.636 171.701 51.4514C171.701 50.069 171.94 48.8317 172.418 47.7395C172.896 46.6301 173.587 45.7683 174.491 45.1539C175.396 44.5224 176.471 44.2067 177.717 44.2067C179.611 44.2067 181.079 44.8125 182.12 46.0243C183.161 47.2189 183.682 48.8915 183.682 51.0418ZM180.431 50.0946C180.431 47.7224 179.552 46.5363 177.794 46.5363C176.992 46.5363 176.36 46.8349 175.899 47.4323C175.456 48.0125 175.191 48.9512 175.106 50.2482H180.431V50.0946ZM190.897 44.2067C192.723 44.2067 194.327 44.7443 195.71 45.8195L194.43 47.7395C193.269 47.0056 192.134 46.6387 191.025 46.6387C190.376 46.6387 189.873 46.7667 189.514 47.0227C189.156 47.2616 188.977 47.5859 188.977 47.9955C188.977 48.3027 189.054 48.5587 189.207 48.7635C189.361 48.9683 189.634 49.1645 190.026 49.3523C190.436 49.5229 191.033 49.7192 191.818 49.941C193.286 50.3336 194.37 50.8541 195.07 51.5026C195.786 52.1512 196.145 53.0557 196.145 54.2162C196.145 55.5645 195.599 56.6226 194.506 57.3906C193.414 58.1415 192.057 58.517 190.436 58.517C189.327 58.517 188.311 58.3463 187.39 58.005C186.485 57.6637 185.7 57.1943 185.034 56.597L186.673 54.7538C187.85 55.6413 189.079 56.085 190.359 56.085C191.093 56.085 191.673 55.9399 192.1 55.6498C192.544 55.3597 192.766 54.9586 192.766 54.4466C192.766 54.0541 192.68 53.7469 192.51 53.525C192.356 53.2861 192.066 53.0813 191.639 52.9106C191.23 52.7229 190.581 52.501 189.694 52.245C188.311 51.8696 187.296 51.349 186.647 50.6834C185.999 50.0008 185.674 49.156 185.674 48.1491C185.674 47.3981 185.888 46.724 186.314 46.1267C186.758 45.5293 187.372 45.06 188.158 44.7187C188.96 44.3773 189.873 44.2067 190.897 44.2067Z" fill="#2D3748"/>
</g>
<defs>
<clipPath id="clip0">
<rect width="200" height="68.7997" fill="white"/>
</clipPath>
</defs>
</svg>
